src/components/stable/gux-icon/icons/cc-outbound-call.svg

<svg viewBox="0 0 28 28" fill="none" xmlns="http://www.w3.org/2000/svg">
  <path d="M17.431 20.5827C16.9218 19.5743 15.8483 18.9579 14.7183 18.9579L11.0447 19.0138L6.80564 10.7214L9.29294 8.31271C9.97111 7.41605 10.0838 6.18326 9.34929 4.72707L7.59752 1.30899C6.91935 -0.0354976 5.33661 -0.42747 4.1493 0.525044C2.34016 1.98123 0.98382 3.94313 0.249306 6.24013C-0.202467 7.75318 -0.0334362 9.37794 0.701078 10.7783L2.79193 14.8686L5.50461 20.1348L7.65284 24.281C8.33101 25.6814 9.51832 26.7466 10.9873 27.3061C13.2483 28.1469 15.7919 28.2028 18.1092 27.5864C19.4092 27.2503 20.0873 25.7372 19.4655 24.5613C18.7873 23.2168 18.1092 21.9282 17.431 20.5837V20.5827ZM27.9437 7.41706C27.9437 7.36121 27.9437 7.30536 27.9437 7.24849C27.9437 7.19163 27.9437 7.13679 27.9437 7.07992C27.9437 7.02407 27.9437 6.96822 27.9437 6.91136C27.9437 6.85449 27.9437 6.79965 27.9437 6.79965C27.9437 6.79965 27.8873 6.63108 27.8873 6.57523V6.51938C27.831 6.40768 27.7746 6.35081 27.7173 6.23911C27.7173 6.18326 27.6609 6.18326 27.6609 6.12741C27.6046 6.07156 27.6046 6.01571 27.5482 6.01571C27.4919 5.95986 27.4355 5.90401 27.3782 5.90401L27.3218 5.84815C27.2091 5.7923 27.1518 5.73645 27.0391 5.73645L20.9345 3.43945C20.1437 3.15918 19.2391 3.55115 18.9564 4.33612C18.6736 5.12108 19.069 6.01672 19.8609 6.29699L22.4609 7.24951L13.7564 11.0596C12.9655 11.3957 12.6264 12.2923 12.9655 13.0763C13.1919 13.6368 13.7564 13.973 14.3782 13.973C14.6046 13.973 14.7736 13.9171 15 13.8613L23.8173 9.99535L22.8 12.6285C22.5173 13.4124 22.9127 14.3091 23.7046 14.5894C23.8746 14.6452 24.0437 14.7011 24.2701 14.7011C24.8919 14.7011 25.4574 14.3091 25.6827 13.6927L28 7.64148C28 7.58563 28 7.58563 28 7.52978C27.8873 7.52978 27.8873 7.47393 27.9437 7.41808V7.41706Z"/>
</svg>

<svg viewBox="0 0 28 28" fill="none" xmlns="http://www.w3.org/2000/svg"><path d="M17.431 20.583c-.51-1.009-1.583-1.625-2.713-1.625l-3.673.056-4.24-8.293 2.488-2.408c.678-.897.79-2.13.056-3.586L7.598 1.31C6.919-.035 5.337-.427 4.149.525A11.974 11.974 0 00.25 6.24a6.042 6.042 0 00.452 4.538l2.09 4.09 2.714 5.267 2.148 4.146c.678 1.4 1.865 2.466 3.334 3.025 2.261.84 4.805.897 7.122.28 1.3-.336 1.978-1.849 1.356-3.025-.678-1.344-1.356-2.633-2.034-3.977v-.001zM27.944 7.417V6.8s-.057-.169-.057-.225V6.52c-.056-.111-.112-.168-.17-.28 0-.056-.056-.056-.056-.112-.056-.055-.056-.111-.113-.111-.056-.056-.112-.112-.17-.112l-.056-.056c-.113-.056-.17-.112-.283-.112L20.934 3.44c-.79-.28-1.695.112-1.978.897-.282.785.113 1.68.905 1.961l2.6.953-8.705 3.81a1.514 1.514 0 00-.79 2.016c.226.56.79.897 1.412.897.227 0 .396-.056.622-.112l8.817-3.866L22.8 12.63c-.283.783.113 1.68.905 1.96.17.056.339.112.565.112a1.51 1.51 0 001.413-1.008L28 7.64v-.11c-.113 0-.113-.056-.056-.112z"/></svg>
